X:260
T:The Smoky Chimney
R:hornpipe
M:4/4
L:1/8
K:Dmaj
(3ABc|dc de fd AF|GF GA BG E2|ef (3gfe cA Bc|de fd AD FA|
dc de fd AF|GF GA BG E2|ef (3gfe cA Bc|df fe d2:|
|:de|fd fg af df|gf ga bg eg|fg af de fd|(3efe (3dcB A2 Ae|
fd fg af df|gf ga bg ef|af (3gfe fd ec|1Ag fe d2:|2Ag fe de fg||
|:a2 ^g2 a3 f|fe ^df e2 c2|B2 A2 B2 ^G2|1EB ^GB A2 (3efg:|2EB ^GB A2 AB||
|:c2 a2 c2 Ac|dB b2 B2 Bc|de f^g ag af|(3efe (3dcB c2 AB|
c2 a2 c2 Ac|dB b2 B2 Bc|de f^g ag af|1(3efe (3dcB A2 AB:|2(3efe (3dcB A2||

